X:1
T:Title
%%score { 1 | 2 }
L:1/8
M:4/4
K:Bb
V:1 treble nm="Grand Piano"
V:2 bass 
V:1
 z4 z2[Q:1/4=100] [B,D]>[CE] | [DF]3 [DB] [Fd]2 [Ec]2 | [DB]2 [DF]4 [B,D]>[CE] | %3
 [DF]2 [DG]2 [DA]2 [DB]2 |[M:3/4] A6 |[M:1/4] c>d |[M:4/4] e3 c G2 A2 | B2 B4 c>[Fd] | %8
 [Fc]2 [=EB]2 [EA]2 [EG]2 |[M:3/4] F6 |[M:1/4] [DF]>[DB] | %11
[M:4/4] [Fd]3 [=E_d] [F=d]>[_Ec] [DB]>[EG] | [DF]4 [B,D]2 [DF]>[FB] | A2 G2 F2 E2 |[M:3/4] D6 | %15
[M:1/4] [DF]>[DB] |[M:4/4] [Fd]3 [=E_d] [F=d]>[_Ec] [DB]>[EG] | [DF]4 [B,D]2 [DB]>[FB] | %18
 c2 e2 d2 c2 |[M:3/4] [DB]6 |] %20
V:2
 z4 z2 [B,,F,]>[B,,F,] | [B,,B,]3 [B,,F,] [B,,B,]2 [F,A,]2 | [B,,B,]2 [B,,B,]4 [B,,F,]>[B,,F,] | %3
 [B,,B,]2 [B,,B,]2 [B,,B,]2 [B,,B,]2 |[M:3/4] [F,CE]6 |[M:1/4] [F,A,F]>[F,B,F] | %6
[M:4/4] [F,CF]3 [F,A,F] [F,CE]2 [^F,CE]2 | [G,B,D]2 [G,B,D]4 [F,A,F]>[B,,B,] | %8
 [C,A,]2 [C,G,]2 [C,C]2 [C,B,]2 |[M:3/4] [F,A,]6 |[M:1/4] [B,,B,]>[B,,B,] | %11
[M:4/4] [B,,B,]3 [B,,B,] [B,,B,]>[B,,B,] [B,,B,]>[B,,B,] | [B,,B,]4 [B,,F,]2 [B,,B,]>[D,B,] | %13
 [F,CE]2 [F,A,E]2 [F,B,D]2 [F,C]2 |[M:3/4] [B,,F,B,]6 |[M:1/4] [B,,B,]>[B,,B,] | %16
[M:4/4] [B,,B,]3 [B,,B,] [B,,B,]>[B,,B,] [B,,B,]>[B,,B,] | [B,,B,]4 [B,,F,]2 [B,,F,]>[D,B,] | %18
 [F,A,F]2 [F,CF]2 [F,B,F]2 [F,A,E]2 |[M:3/4] [B,,B,]6 |] %20

